X:1
T:Tidings (Allan), 86.86.88.86
T:Tidings (Allan), 86.86.88.86
T:Arranged by George Allan
T:Public Domain Courtesy of the Cyber Hymnal™
C:Arranged by George Allan
Z:Public Domain
Z:Courtesy of the Cyber Hymnal™
%%score ( 1 2 ) ( 3 4 )
L:1/8
Q:1/4=97
M:3/4
K:Bb
V:1 treble 
V:2 treble 
V:3 bass 
V:4 bass 
V:1
 [EF] | [DF]>[DF] [EF]>[EF] [DF]>[DF] | (d2 B2) [FB]>[FB] | (c2 e2) [FA]>[EA] | [DB]2 z3 [EF] | %5
 [DF]>[DF] [EF]>[EF] [DF]>[DF] | (d2 B2) [FB]>[FB] | (c2 e2) [FA]>[EA] | [DB]2 z3 [Fc] | %9
 [FA]>[FB] [Fc]2 (BA) | [FB]>[Fc] [Fd]2 [FB]2 | [FA]>[FB] [Fc]2 (BA) | [FB]>[Fc] [Fd]3 [EF] | %13
 [DF]>[DF] [EF]>[EF] [DF]>[DF] | (d2 B2) [FB]>[FB] | (c2 e2) [FA]>[EA] | [DB]2 z3 |] %17
V:2
 x | x6 | F4 x2 | G4 x2 | x6 | x6 | F4 x2 | G4 x2 | x6 | x4 F2 | x6 | x4 F2 | x6 | x6 | F4 x2 | %15
 G4 x2 | x5 |] %17
V:3
 [F,A,] | [B,,B,]>[B,,B,] [C,A,]>[C,A,] [D,B,]>[D,B,] | B,4 [D,B,]>[D,B,] | %3
 ([E,G,]2 [C,C]2) [F,C]>[F,C] | [B,,B,]2 z3 [F,A,] | [B,,B,]>[B,,B,] [C,A,]>[C,A,] [D,B,]>[D,B,] | %6
 B,4 [D,B,]>[D,B,] | ([E,G,]2 [C,C]2) [F,C]>[F,C] | [B,,B,]2 z3 [F,A,] | %9
 [F,C]>[F,B,] A,2 ([D,B,][E,C]) | [D,B,]>[C,A,] [B,,B,]2 [D,B,]2 | %11
 [E,C]>[D,B,] [C,A,]2 ([D,B,][E,C]) | [D,B,]>[C,A,] [B,,B,]3 [F,A,] | %13
 [B,,B,]>[B,,B,] [C,A,]>[C,A,] [D,B,]>[D,B,] | B,4 [D,B,]>[D,B,] | ([E,G,]2 [C,C]2) [F,C]>[F,C] | %16
 [B,,B,]2 z3 |] %17
V:4
 x | x6 | (B,,2 D,2) x2 | x6 | x6 | x6 | (B,,2 D,2) x2 | x6 | x6 | x2 (F,E,) x2 | x6 | x6 | x6 | %13
 x6 | (B,,2 D,2) x2 | x6 | x5 |] %17

